svg/font_awesome.svg

<svg xmlns="http://www.w3.org/2000/svg" viewBox="0 0 24 24"><path d="M19.76 2H4.24C3 2 2 3 2 4.24v15.52C2 21 3 22 4.24 22h15.52C21 22 22 21 22 19.76V4.24C22 3 21 2 19.76 2m-2.03 12.69c0 .19-.16.27-.35.35-.74.32-1.54.61-2.38.61-1.22 0-1.78-.74-3.22-.74-1.04 0-2.13.37-3.01.77-.06.03-.11.03-.16.05v2.03c0 .08 0 .16-.03.21v.06c-.11.37-.45.64-.85.64-.51 0-.91-.41-.91-.91V8a1.49 1.49 0 0 1 .91-2.67c.83 0 1.5.67 1.5 1.5 0 .48-.23.9-.59 1.17v.83c.08-.03.16-.06.24-.11.83-.35 1.82-.64 2.75-.64 1.01 0 1.81.27 2.72.61.19.08.37.11.58.11 1.02 0 2.14-.72 2.41-.72.21 0 .4.16.4.35v6.26z"/></svg>

<?xml version="1.0" encoding="UTF-8"?><!DOCTYPE svg PUBLIC "-//W3C//DTD SVG 1.1//EN" "http://www.w3.org/Graphics/SVG/1.1/DTD/svg11.dtd"><svg xmlns="http://www.w3.org/2000/svg" xmlns:xlink="http://www.w3.org/1999/xlink" version="1.1" id="mdi-font-awesome" width="24" height="24" viewBox="0 0 24 24"><path d="M19.76 2H4.24C3 2 2 3 2 4.24V19.76C2 21 3 22 4.24 22H19.76C21 22 22 21 22 19.76V4.24C22 3 21 2 19.76 2M17.73 14.69C17.73 14.88 17.57 14.96 17.38 15.04C16.64 15.36 15.84 15.65 15 15.65C13.78 15.65 13.22 14.91 11.78 14.91C10.74 14.91 9.65 15.28 8.77 15.68C8.71 15.71 8.66 15.71 8.61 15.73V17.76C8.61 17.84 8.61 17.92 8.58 17.97V18.03C8.47 18.4 8.13 18.67 7.73 18.67C7.22 18.67 6.82 18.26 6.82 17.76V8C6.47 7.73 6.24 7.31 6.24 6.83C6.24 6 6.9 5.33 7.73 5.33C8.56 5.33 9.23 6 9.23 6.83C9.23 7.31 9 7.73 8.64 8V8.83C8.72 8.8 8.8 8.77 8.88 8.72C9.71 8.37 10.7 8.08 11.63 8.08C12.64 8.08 13.44 8.35 14.35 8.69C14.54 8.77 14.72 8.8 14.93 8.8C15.95 8.8 17.07 8.08 17.34 8.08C17.55 8.08 17.74 8.24 17.74 8.43V14.69H17.73Z" /></svg>
